X:1
T:Perfido, che chiamare
T:Domenico Mazzocchi
T:Source : Musice sacre e morali---Roma---L. Grignani---1640. Editor : André Vierendeels (24/08/18) Notes : Original clefs : C1, F4 m 24 in Canto: "H" notated as "C" in original print m 67 in Canto : "G" notated as"A" in original print "Contro Amore" Text  by Cardinale Roberto Ubaldini
T:Prima parte
T:Perfido, che chiamare
T:©
T:©
T:©
T:©
T:©
T:©
T:©
T:©
T:©
T:©
C:Domenico Mazzocchi
Z:©
%%score 1 { 2 | 3 }
L:1/8
Q:1/4=90
M:4/4
K:F
V:1 treble nm="Soprano" snm="S"
V:2 treble nm="MusicXML Part"
V:3 bass 
V:1
 _e3 e c4 | z2 GG G2 Gc | B3 A B2 B2 | z2 z d d>d d_e | _e4 f>f ed | d2 d2 z2 f2- | %6
w: Per- fi- do,|che chia- ma- re A-|mor ti fa- i,|e spen- di con- tro|noi l'i- re e le|fro- di, sol|
 ff ff/_e/ g2 g2 | z BBc c2 c2 | z d_ef =B2 B2 | z dd_e e4- | e2 cc c4 | B8 | z d2 B B2 BA | %13
w: _ del pian- ger ti pa- sci,|e sol ti go- di,|del lan- guir no- stro,|e non ti sa-|* ti- i- ma-|i.|Sol del pian- ger ti|
 B2 B2 z _eBA | B2 Bc ^F>F F2- | G>A B/TA/A/G/- A4 | z dd_e e>f g/d/e/=B/ | %17
w: pa- sci, e sol ti|go- di, del lan- guir no-|* * * * * stro, _|e non ti sa- * * * * *|
 c/G/A/B/ c/T=B/B/A/ B/A/B/c/ d/e/f/d/ | _e/f/e/d/ c/B/A/G/ A2 A2 | z2 f4 gd | %20
w: |* * * * * * * * ti- i|ma- * *|
 _e4 z f/g/ _a/g/f/e/ | de/f/ =B2 z A/B/ c/B/A/G/ | FG/_A/ G3 A/B/ c2 | =B2 c4 z2 || %24
w: |||* i.|
"^Seconda parte" z2 G>_A A2 A2 | z2 =B>c c2 cd | _e3 A B2 B2 | z d2 d/_e/ e2 e2 | %28
w: Hor di ghiac- cio,|hor di fo- co ar-|ma- to va- i,|hor di qua- drel- la,|
 z e2 e/f/ f2 z/ f/e/d/ | c2 z/ _e/d/c/ d2 z/ e/d/c/ | B2 z/ c/B/A/ G2 G2 | %31
w: hor di ca- te- * * *||* * * * * ne,|
 g/f/_e/d/ e/Td/d/c/4B/4 A/G/A/B/ c/A/B/c/ | F/c/d/e/ f/Td/e/f/ B/F/G/A/ B/c/d/e/ | %33
w: e _ _ _ no- * * * * * * * * * * * *||
 f/A/B/c/ d/c/Tc/B/ c2 c2 | z2 F2 A>A AA | AA/B/ cB cc/c/ d_e | =B2 Bd _e4- | e2 _d3- ccd | %38
w: * * * * * * * * * di,|e poi- che lun- go|stra- tio in mil- le mo- di, fatt' hai d'un|Al- ma, al fin|_ mor- * te le|
 Tc2- B2 B4 | z2 F2 B>B BB | B2 B2 z c d>_e | B2 BA A3 F | G>A B/TA/A/G/- A4 | z2 d2 _e4 | %44
w: da- * i,|e poi- che lun- go|stra- tio in mil- le|mo- di, fatt' hai d'un|Al- * * * * ma, _|al fin|
 G2 A2 B4- | B2 B2 _AA/B/ c/B/B | G>A =B/G/A/B/ c/d/_e/f/ g/d/e/c/ | %47
w: mor- * *|* te le _ _ _ _ _|da- * * * * * * * * * * * * *|
 d/G/A/B/ c/G/A/F/ G/D/_E/F/ G/D/E/C/ | G- F3 !fermata!E4 ||"^Terza et ultima parte" z2 g2 c4 | %50
w: |* * i.|O mo-|
 c4 z GGG | G>G GG/A/ B2 BB | B B2 c/d/ _e2 e2 | z2 f2 _e3 d | d2 d2 z2 f2 | f>f f_e g2 z B | %56
w: stro, e pu- re'o-|so di mu- sa Ar- gi- va, con-|tar fa- ma bu- giar- da,|e in- fe-|de- le, ch'in|ciel ti par- to- ri in|
 _e2 _d2 c4 | B8 | d2 z d g2 dc | d2 d2 z _eBA | B2 BB c3 ^F | G2 G2 z cBA | A3 E ^F2 F2 | %63
w: Ci- pria Di-|va;|Tel l'in- fer- no pro-|dus- se, e te cru-|de- le nu- trir l'E-|rin- ni in su la|Sti- gia ri- va,|
 z2 A2 B2 cc | d>c d/c/d/e/ c4 | z2 B4 A2- | A2 A4 GA | A4 G4 | z2 d2 _e2 ed | %69
w: e fu il tuo|lat- * * * * * te|sol ve-|* le- no, e|fie- le,|e fu il tuo|
"^b""^b" d>e d>e f_e/d/ c/B/c/d/ | _e/d/c/B/ c/G/A/B/ A/G/A/B/ c/G/A/E/ | F2 F2 f4- | f2 g2 _e4- | %73
w: lat- * * * * * * * * * *||* te sol|_ ve- le-|
 ef/_e/ d4 d2- | d2 z d d_efg | _edf=B c4- | c2 =B2 !fermata!c4 |] %77
w: * * * * no,|_ e fie- * * *||* le. _|
V:2
 z8 | z8 | z8 | z8 |"^BC" z8 | z8 | z8 | z8 | z8 | z8 | z8 | z8 | z8 | z8 | z8 | z8 | z8 | z8 | %18
 z8 | z8 | z8 | z8 | z8 |"^b""^7" z8 || z8 |"^2" z8 | z8 | z8 | z8 | z8 | z8 | z8 | z8 | z8 | z8 | %35
 z8 |"^4 3" z8 | z8 | z8 |"^4" z8 | z8 | z8 | z8 | z8 | z8 | z8 | z8 | z8 |"^7""^b" z8 || z8 | z8 | %51
 z8 | z8 | z8 | z8 | z8 | z8 | z8 | z8 | z8 | z8 | z8 | z8 | z8 | z8 | z8 | z8 | z8 | z8 | z8 | %70
 z8 | z8 | z8 | z8 | z8 | z8 | z8 |] %77
V:3
 C,8 | C,8- | C,4 G,,4 | G,,8- | G,,4 A,,4 | B,,8- | B,,4 _E,4 | _E,8 | F,4 G,4 | G,8 | E,4 F,4 | %11
 B,,8- | B,,4 G,,4 | G,,8 | G,,8 | _E,4 D,4 | =B,,4 C,4 | C,4 G,4 | C,4 F,4- | F,4 G,4- | %20
"^b""^6" G,4 F,4- | F,4 F,4- |"^2" F,6 _E,F, | G,4 !fermata!C,4 || C,8 | C,8 | C,4 G,,4 | G,,8 | %28
 G,,4 A,,4- | A,,4 B,,4- | B,,4 _E,4- | E,4 F,4 |"^3" F,4 F,4 | F,8 | F,8 | F,8 | G,8 | F,4 E,4 | %38
 F,4 B,,4- | B,,4 G,,4 | G,,8 | G,,8 | _E,4 D,4 | =B,,4 C,4- | C,4 G,,4 | C,4 F,4 | %46
"^-natural""^3 4" G,8 | G,8 |"^-natural" G,4 !fermata!C,4 || C,8 | C,8- | C,4 G,,4 | G,,8 | A,,8 | %54
 B,,8 | B,,4 _E,4- | E,4 F,4 | B,,8 | B,,4 G,,4 | G,,8 | G,,8 | G,,8 | _E,4 D,4 | D,6 C,2 | %64
 B,,2 G,,2 A,,2 G,,2 | ^F,2 G,2 C,2 =F,2 | B,,2 _E,2 C,2 =B,,2 | D,4 G,,4 | G,2 ^F,2 G,2 A,2 | %69
 B,4 A,4 | G,4 F,4 | F,2 E,2 D,2 C,2 | =B,,4 C2 B,2 | A,2 B,2 _E,2 _A,2 | F,2 _E,2 G,4- | %75
 G,4 _A,G,F,_E, | G,4 !fermata!C,4 |] %77

